X:1
T:Children’s Offerings, 77.5 D
T:John Stainer (1840-1901)
T:Children’s Offerings, 77.5 D
T:Public Domain
C:John Stainer (1840-1901)
Z:Public Domain
%%score ( 1 2 ) 3
L:1/8
M:6/8
K:Eb
V:1 treble 
V:2 treble 
V:3 bass 
V:1
 ([GB][EG])[Ac] [GB]2 [FA] | [EG]2 [FA] ([EG]2 [DF]) | [GB][EG][Ac] [GB]2 [FA] | %3
 [EG]2 [F=A] (FG[Ac]) | ([FBd][Bdf])[Gce] ([Bd][ce])[E=Ac] | [DB]6 | ([E-G][EA])[EGc] [Ff]2 [FAc] | %7
 ([GB][FA])[=EG] [FA]3 | ([D-F][DG])[DFB] [Ee]2 [GB] | ([FA][EG])[DF] ([EG]2 [FA]) | %10
 GF[CEc] (FG)[B,DA] | [B,EG]6 |] %12
V:2
 x6 | x6 | x6 | x3 B2 x | x2 F2 x2 | x6 | c2 x4 | x6 | B2 x4 | x6 | B2 [B,E]2 x2 | x6 |] %12
V:3
 E,3 (E,G,)B, | C2 A, B,3 | E,3 B,,C,D, | E,3 (D,2 F,) | (B,D,)E, F,2 F, | (B,F,D, B,,3) | %6
 B,2 B, A,2 A, | (B,C)C, F,3 | A,2 A, G,2 G,, | A,,2 B,, (E,C,A,,) | G,,2 A,, B,,2 B,, | E,,6 |] %12

